X:1
T:Prelude
T:Prelude
T:Op. 28 No. 21
T:Frédéric Chopin
C:Frédéric Chopin
%%score { ( 1 3 4 ) | 2 }
L:1/8
Q:1/4=80
M:3/4
K:Bb
V:1 treble nm="鋼琴" snm="Pno."
V:3 treble 
V:4 treble 
V:2 bass 
V:1
"^Cantabile"!p! (f6[Q:1/4=144] | d4{f} e2 | d6 | G6) | (A2 e2 e2 | e2{efe} d2 e2 | g4- g>f | %7
 d4) z2 | (b6 | B4-) B>(B | (g6) |!p! G2{GAG^FG} e2 c2 | A)!>(! ([fd'][=eg][_ea][db][_df] | %13
[Q:1/4=140] [c_a][B_g][=Ac][Q:1/4=136][_Ad][=Ge]!>)!!p![_GB]) | %14
[Q:1/4=132] z!mf!!>(! ([Fd][=EG][Q:1/4=128][_EA][DB]!>)!!p!F | %15
[Q:1/4=124] B,) z[Q:1/4=120] z4[Q:1/4=116] | %16
!f![Q:1/4=120] ([B_db]6[Q:1/4=124][Q:1/4=128][Q:1/4=132][Q:1/4=136][Q:1/4=140] | %17
[Q:1/4=144] [_GB_g]4 [_ce_c']2 | [B_db]6 | [_GB_g]6) | ([_db_d']4 [B_gb]2 | %21
 [_gb_g']4 [_db_d']2{x} |{/[_ca_c']} [cac']2 [B_gb]2) z2 |!>(! z6!>)! |!pp! ([B_db]6 | %25
 [_GB_g]4 [_ce_c']2 | [B_db]6 | [_GB_g]6 | [_db_d']4 [B_gb]2 | [_gb_g']4 [_db_d']2{x} | %30
{/[_db_d']} [_ca_c']2 [B_gb]2) z2 |[Q:1/4=140] z6[Q:1/4=136][Q:1/4=132] | %32
!mf![Q:1/4=136]"_cresc." z"^cantato" (F[Q:1/4=140][=EG][_EA][Q:1/4=144][DB][Cc]) | %33
 z (F[=EG][_EA][DB]d) | z (G[^FA][=F=B][Ec][Dd]) | z (G[^FA][=F=B][Ec]e) | z (A[^G=B][=G^c][Fd]f) | %37
 z (B[Ac][_Ad][Ge][_G_g]) |!ff! z (f!<(!!>![_gbe']f!>![gbe']f | [_gbe']f[gbe']f[gbe']!<)!!ff!f | %40
!>(! [_ge'][fd'][=e=g][_ea][db][_df]!>)! | %41
!mf![Q:1/4=140] [c_a][B_g][Q:1/4=136]"_dimin."[=Ac][_Ad][Q:1/4=132][=Ge][_GB] | %42
[Q:1/4=128] [F_d][=Ec][Q:1/4=124][_EG][=D^G][Q:1/4=120][^C=A][=CE] | %43
[Q:1/4=116] [B,_G][A,F][Q:1/4=112][_A,C]!p![=G,D][Q:1/4=108] _G,[F,=A,] | %44
[Q:1/4=112] [F,B,D]) z[Q:1/4=116] z4[Q:1/4=120] | %45
[Q:1/4=124] z!mf!!>(! ([_Ge][Q:1/4=128][FA][=EB][Q:1/4=132]_EG!>)! | %46
[Q:1/4=136] [DFBd]2)[Q:1/4=140] z2[Q:1/4=144] z2 | z!mf!!>(! ([_Ge][FA][=EB]_EG!>)! | %48
 [DFBd]2) z2 z2 | (!>![G,G]6 | [F,B,F]6) | (!>![G,G]6 | %52
[Q:1/4=140] [F,B,F]6-[Q:1/4=136][Q:1/4=132] |[Q:1/4=128] [F,B,DF]6-[Q:1/4=124][Q:1/4=120] | %54
[Q:1/4=116]!<(! [F,B,DF]6)[Q:1/4=112][Q:1/4=108] |[Q:1/4=104] z6!<)![Q:1/4=100][Q:1/4=96] |!f! z6 | %57
 ([F,EF]6 |[Q:1/4=48] [F,DF]6) |] %59
V:2
!ped! B,,, (F,!ped-up!!<(![=E,G,][_E,A,][D,B,]!<)!!mf![C,C] | %1
!ped! B,,)!p! ([F,D]!ped-up!!<(![=E,G,][_E,A,][D,B,]!<)!!mf!B,, | %2
!ped! E,,)!p! (G,!ped-up!!<(![^F,A,][=F,=B,][E,C]!<)!!mf![D,D] | %3
!ped! C,)!p! ([G,E]!ped-up!!<(![^F,A,][=F,=B,][E,C]!<)!!mf![C,E] | %4
!ped! F,,)!p! ([B,_G]!ped-up!!<(![A,F][_A,C][=G,E]!<)!!mf![_G,B,] | %5
!ped! F,,) ([_G,E]!ped-up!!>(![F,D][=E,=G,][_E,A,]!>)!!p!F, | %6
!ped! B,,) (F,!ped-up!!<(![=E,G,][_E,A,][D,B,]!<)!!mf![C,C] | %7
!ped! B,,)!p! ([F,D]!ped-up!!<(![=E,G,][_E,A,][D,B,]!<)!!mf![C,C] | %8
!ped! G,,)!p! (D!ped-up!!<(![^C=E][=C^F][B,G]!<)!!mf![A,A] | %9
!ped! B,,)!p! (B,!ped-up!!<(![A,C][_A,D][G,E]!<)!!mf![F,F] | %10
!ped! E,,)!p! (G,!ped-up!!<(![^F,=A,][=F,=B,][E,C]!<)!!mf![D,D] | %11
!ped! C,) ([G,E]!ped-up!!<(![^F,A,][=F,=B,][E,C]!<)!!mf![C,E] | %12
!ped! F,,)[K:treble] ([Fd]!ped-up![=EG][_EA][DB][_DF] | [C_A][B,_G][=A,C][_A,D][=G,E][_G,B,] | %14
[K:bass] B,,) ([F,D][=E,G,][_E,A,][D,B,]F, | B,,)"^dim." ([F,D][=E,G,][_E,A,][D,B,]!pp!B,,) | %16
!ped! _G,,, ([_D,B,][_G,_D][B,E][G,D][D,B,] | [_G,_D][B,E][G,D][_D,B,]!ped-up![G,D][B,E] | %18
!ped! [_G,_D][_D,B,][G,D][B,E][G,D][D,B,] | [_G,_D][B,E][G,D][_D,B,][G,D][B,E] | %20
 [_G,_D][_D,B,][G,D][B,E][G,D][D,B,] | [_G,_D][B,E][G,D][_D,B,][G,D][B,E] | %22
 [_G,_D][_D,B,][G,D][B,E][G,D][D,B,] | [_G,_D][B,E][G,D][_D,B,][G,D][B,E])!ped-up! | %24
"_una corda" ([_G,_F][B,_D][G,_G][B,E][G,F][B,D] | _G,[B,E][G,_F][B,_D][G,_G][B,E] | %26
 [_G,_F][B,_D][G,_G][B,E][G,F][B,D] | _G,[B,E][G,_F][B,_D][G,_G][B,E] | %28
 [_G,_F][B,_D][G,_G][B,E][G,F][B,D] | [_G,_G][B,E][G,_F][B,_D][G,G][B,E] | %30
 [_G,_F][B,_D][G,_G][B,E][G,F][B,D] |!<(! [_G,_G][B,E][G,_F][B,_D][G,=E]!<)![B,C]) | %32
"_tre corde"!ped! F,,, (F,!ped-up![=E,G,][_E,A,][D,B,]C, | %33
!ped! F,,) (F,!ped-up![=E,G,][_E,A,][D,B,]F, |!ped! F,,) (G,!ped-up![^F,A,][=F,=B,][E,C]D, | %35
!ped! F,,) (G,!ped-up![^F,A,][=F,=B,][E,C]G, |!ped! F,,) (A,!ped-up![^G,=B,][=G,^C][F,D]A, | %37
!ped! F,,) (B,!ped-up![A,C][_A,D][G,E]_G, |!ped! .!^![F,,,F,,])[K:treble] (F!>![_GBe]F!>![GBe]F | %39
 [_GBe]F[GBe]F[GBe]F!ped-up! | [_GAe][Fd][=E=G][_EA][DB][_DF] | %41
 [C_A][B,_G][K:bass] [=A,C][_A,D][=G,E][_G,B,] | [F,_D][=E,C][_E,G,][=D,^G,][^C,=A,][=C,E,] | %43
 [B,,_G,][A,,F,][_A,,C,][=G,,D,][_G,,E,]F,, |!ped! B,,,) (=E,F,B,A,!ped-up!G, | %45
!ped! F,,) ([_G,E]!ped-up![F,A,][=E,B,][_E,C]G, |!ped! B,,) (=E,F,B,A,!ped-up!G, | %47
!ped! F,,) ([_G,E]!ped-up![F,A,][=E,B,][_E,C]G, | B,,,)!<(! (=E,,F,,B,,A,,!<)!G,,) | %49
!ped! (G,,,4!ped-up! A,,,2 | B,,,) (=E,,F,,B,,A,,G,,) |!ped! (G,,,4!ped-up! A,,,2 | %52
 B,,,) (=E,,F,,B,,A,,G,, | B,,,) (=E,,F,,B,,A,,G,, | B,,,) (=E,,F,,C,A,,B,, | %55
 _E,"^cresc."^C,D,G,=E,F, |!ped! !>!D2) z2!ped-up! z2 |!ped! !>![F,,,F,,]6!ped-up! | %58
!ped! !>![B,,,B,,]6!ped-up! |] %59
V:3
 x6 | x6 | x6 | x6 | x6 | x6 | x6 | x6 | x6 | x6 | x6 | x6 | x6 | x6 | x6 | x6 | x6 | x6 | x6 | %19
 x6 | x6 | x6 | x6 | x6 | x6 | x6 | x6 | x6 | x6 | x6 | x6 | x6 | !>!f2 x4 | d2 x4 | !>!g2 x4 | %35
 e2 x4 | !>!a2 x4 | !>!b2 x4 | x6 | x6 | x6 | x6 | x6 | x4 !>!E2 | x6 | x4 [Ec]2 | x6 | x4 [Ec]2 | %48
 x6 | D3 CED | D6 | D3 CED | D6- | x6 | x6 | x6 | x6 | !>!C6 | !>!B,6 |] %59
V:4
 x6 | x6 | x6 | x6 | x6 | x6 | x6 | x6 | x6 | x6 | x6 | x6 | x6 | x6 | x6 | x6 | x6 | x6 | x6 | %19
 x6 | x6 | x6 | x6 | x6 | x6 | x6 | x6 | x6 | x6 | x6 | x6 | x6 | x6 | x6 | x6 | x6 | x6 | x6 | %38
 x6 | x6 | x6 | x6 | x6 | x6 | x6 | x6 | x6 | x6 | x6 | !stemless!B,2 x4 | x6 | !stemless!B,2 x4 | %52
 x6 | x6 | x6 | x6 | x6 | x6 | x6 |] %59

